!!!!SEGMENT: pl-wtm--iii-42-033--003_kamienski-antoni--marie-valses-valse-no-3.krn
!!!cenid: 18xx:4356
!!!COM: Kamieński, Antoni
!!!COM-rismID: pe50045389
!!!CDT:
!!!CNT: Polish
!!!GTL: Marie-valses
!!!OTL: [Valse] No. 3.
!!!OMV: 003
!!!PDT:
!!!AGN: Secular; Waltz
!!!SMS-siglum: PL-Wtm
!!!SMS-shelfmark: III.42.033
!!!SMS-shelfwork: 001-003 G
!!!SMS-variant:
!!!SMS-altvar:
!!!NIFC-rismSourceID: 1001136606
!!!NIFC-rismChildID: 1001136609
!!!NIFC-islandoraID: pl-wtm:23979
!!!URL-pdf-islandora: https://repozytorium.nifc.pl/islandora/object/pl-wtm:23979/datastream/PDF/view
!!!URL-scan: https://polish.musicsources.pl/pl/lokalizacje/galeria/druki-muzyczne/17856/3 @EN{Scan on Polish Music Sources Website} @PL{Skany w portalu Dziedzictwo Muzyki Polskiej w otwartym dostępie}
!!!ONB-nifc: UWAGA: skan 3-4.
!!!AIN: 2 piano
!!!key: D
!!!OMD: N.° 3
**kern	**kern	**dynam
*part2	*part1	*part1
*staff2	*staff1	*
*>[A,A,B,B1,B,B2]	*>[A,A,B,B1,B,B2]	*>[A,A,B,B1,B,B2]
*>A	*>A	*>A
*I"PIANO	*I"PIANO	*
*Ipiano	*Ipiano	*
*ICklav	*ICklav	*
*clefF4	*clefG2	*
*k[f#c#gn]	*k[f#c#gn]	*
*D:	*D:	*
*M3/4	*M3/4	*
=1	=1	=1
!LO:TX:t=P:problem:znaki F# E# Gn	!LO:TX:t=P:problem:znaki ff# ee# ggn	!LO:DY:rj
4AA/	8aa 8gg 8a\	f
.	8r	.
4g 4c# 4A\	8aa 8gg 8a\	.
.	8r	.
4g 4c# 4A\	8aa 8gg 8a\	.
.	8r	.
=2	=2	=2
4C#/	4aa 4gg 4a\	>
4g 4e 4c# 4A\	4.bb 4.gg 4.b\	.
4g 4e 4c# 4A\	.	.
.	8aa 8gg 8a\	]
!!LO:LB:g=original
=3	=3	=3
4D\	8bb 8gg 8b\	.
.	8r	.
4d 4A 4F#\	8aa 8ff# 8a\	.
.	8r	.
4d 4A 4F#\	8aa 8ff# 8a\	.
.	8r	.
=4	=4	=4
4D\	4ff# 4a\	.
4f# 4d 4A\	4.gg 4.b\	>
4f# 4d 4A\	.	.
.	8ff# 8a\	]
=5	=5	=5
4AA/	8ff# 8a\	.
.	8r	.
4c# 4A 4G\	8ee 8g\	.
.	8r	.
4c# 4A 4G\	8dd 8f#\	.
.	8r	.
=6	=6	=6
4C#/	4ee 4g\	.
4A 4G 4E\	4.ff# 4.a\	>
4A 4G 4E\	.	.
.	8ee 8g\	]
=7	=7	=7
4D\	8ee 8g\	.
.	8r	.
4d 4A 4F#\	8dd 8f#\	.
.	8r	.
4d 4A 4F#\	8dd 8f#\	.
.	8r	.
=8	=8	=8
4D\	4dd 4f#/	.
4d 4A 4F#\	4.ff# 4.a\	>
4r	.	.
!	!LO:TX:b:B:t=V&colon;S&colon;	!
.	8gg 8ee\	]
!!LO:PB:g=original
=9	=9	=9
4AA/	8aa 8cc# 8a\	.
.	8r	.
4c# 4A 4G\	8aa 8cc# 8a\	.
.	8r	.
4c# 4A 4G\	8aa 8cc# 8a\	.
.	8r	.
=10	=10	=10
4C#/	4aa 4cc# 4a\	.
4e 4c# 4G\	4.bb 4.dd 4.b\	<
4e 4c# 4A\	.	.
.	8ccc# 8ee 8cc#\	[
=11	=11	=11
4BB/	8ddd 8ff# 8dd\	.
.	8r	.
4d 4B 4F#\	8ddd 8ff# 8dd\	.
.	8r	.
4d 4B 4F#\	8ddd 8ff# 8dd\	.
.	8r	.
=12	=12	=12
4GG/	4ddd 4ff# 4dd\	.
4e 4B 4G\	4aa#X 4cc# 4a#X\	.
4d 4B 4G\	8bb 8dd 8b\	.
.	8ryy	.
=13	=13	=13
4AA/	4bb 4dd 4b\	.
4f# 4d 4A\	4.gg#X 4.g#X\	.
4f# 4d 4A\	.	.
.	8aa 8a\	.
=14	=14	=14
!	!	!LO:DY:t=fp.
4GG/	4aa 4cc# 4a\	fp
4e 4B 4G\	4.ff# 4.a 4.f#\	.
4e 4B 4G\	.	.
.	8gg 8b 8g\	.
!!LO:LB:g=original
=15	=15	=15
4AA/	4gg 4b 4g\	.
4c# 4A 4G 4E\	4.b 4.g\	.
4c# 4A 4G 4E\	.	.
.	8cc# 8g\	.
=16	=16	=16
2d 2A 2D\	2dd 2f#/	.
4r	4r	.
=17:|!|:	=17:|!|:	=17:|!|:
*>B	*>B	*>B
!	!	!LO:DY:t=p.
4D/	4r	p
4f# 4d 4A\	8r	.
.	(8ff# 8dd\	.
4f# 4d 4A\	4ff# 4dd\)	.
=18	=18	=18
4AA/	4r	.
4e 4B 4A\	8r	.
.	(8gg 8ee\	.
4e 4B 4A\	4gg 4ee\)	.
=19	=19	=19
4D\	4r	.
4f# 4d 4A\	(4.ff# 4.dd\	.
4f# 4d 4A\	.	.
.	8ddd 8ff#\)	.
=20	=20	=20
4D\	2.ff# 2.dd^^\	.
4d 4A 4F#\	.	.
4d 4A 4F#\	.	.
!!LO:LB:g=original
=21	=21	=21
4C#/	4r	.
4g 4c# 4A\	(4.gg 4.ee\	.
4g 4c# 4A\	.	.
.	8ccc# 8ee\)	.
=22	=22	=22
4C#/	2.cc# 2.a^^\	.
4g 4e 4c# 4A\	.	.
4g 4e 4c# 4A\	.	.
=23	=23	=23
4D\	4r	.
4d 4A 4F#\	4.ff# 4.dd\	.
4d 4A 4F#\	.	.
.	8aa 8ff#\	.
=24	=24	=24
4D\	2.dd 2.f#^^/	.
4d 4A 4F#\	.	.
4d 4A 4F#\	.	.
=25	=25	=25
4BB/	4r	.
4d 4B 4F#\	8r	.
.	(8ff# 8dd\	.
4d 4B 4F#\	4ff# 4dd\)	.
=26	=26	=26
!	!	!LO:DY:t=f.
4C#/	4r	f
4e 4c# 4F#\	8r	.
.	(8aa#X 8ff# 8ee\	.
4e 4c# 4F#\	4aa# 4ff# 4ee\)	.
!!LO:LB:g=original
=27	=27	=27
4GG/	4r	.
4e 4B 4G\	(4.aa#X 4.ff#\	.
4e 4B 4G\	.	.
.	8bb 8gg\)	.
=28	=28	=28
4E\	2ccc# 2aa\	<
4B 4G\	.	.
4B 4G\	4bb 4gg\	[
=29	=29	=29
4D\	4ddd 4ff#^^\	.
4d 4A 4F#\	4.fff# 4.ff#\	>
4d 4A 4F#\	.	.
.	8ddd 8ff#\	]
=30	=30	=30
4AA/	4ccc# 4ee^^\	.
4c# 4A 4G 4E\	4.eee 4.gg\	>
4c# 4A 4G 4E\	.	.
.	8aa 8cc#\	]
=31	=31	=31
4D\	8dddL 8ff#\	.
.	8dd\J	.
4d 4A 4F#\	8ddL 8f#/	.
.	8ddJ 8f#/	.
4d 4A 4F#\	8ddL 8f#/	.
.	8ddJ 8f#/	.
=32	=32	=32
!!LO:TX:a:t=1a
*>B1	*>B1	*>B1
2d 2A 2F# 2D\	2dd 2f#/	.
4r	(8cc#\L	.
.	8b\J)	.
!!LO:LB:g=original
=33:|!	=33:|!	=33:|!
!!LO:TX:a:t=2da
*>B2	*>B2	*>B2
2d 2A 2F# 2D\	2dd 2f#\	.
4r	4r	.
==	==	==
*-	*-	*-
!!!system-decoration: {(*)}
!!!ENC: Berenika Jozajtis
!!!END: 2023-07-10
!!!ENC: Marta Lawrence
!!!END: 2023-07-17
!!!YEC: Copyright 2022 Narodowy Instytut Fryderyka Chopina (https://polishscores.org)
!!!YEM: License CC-BY-4.0 (https://creativecommons.org/licenses/by/4.0)
